X: 1
T:Lucy Campbell's -- Reel
M:C|
L:1/8
R:reel
O:SCOTCH
B:Ryan's Mammoth Collection
N:276
Z:Contributed by Ray Davies,  ray:davies99.freeserve.co.uk
K:D
udB"^Segno"|\
AD((3FED) ADBD | AD((3FED) BEE2 | AD((3FED) defe | dBAF (AD)D2 |
dBAB defe | dBAF BEE2 | dBAB defe | dBAF ADD2 |]
abag defe | dBAF BEE2 | abaf defe | dBAF ADD2 |
abag defe | abaf bgeg | faef defe | dBAF (AD)D2 |]
defe defe | dBAF BEE2 | dfef defe | dBAF ADD2 |
defe defe | dBAF BEE2 | dfef defe | dBAF ADD2 "^Segno"|]
